!!!!SEGMENT: pl-sa--565-a-ix-45--003_anonim--keyboard-piece.krn
!!!cenid: 18xx:594
!!!COM: Anonim
!!!COM-rismid: pe30004985
!!!CDT:
!!!CNT:
!!!OTL: [Keyboard piece]
!!!PDT:
!!!AGN: Secular
!!!SMS-siglum: PL-SA
!!!SMS-shelfmark: 565/A IX 45
!!!SMS-shelfwork: 003 W
!!!SMS-variant:
!!!SMS-altvar:
!!!NIFC-rismid: 1001077284
!!!system-decoration: {(s1,s2)}
!!!key:
**kern	**kern
*part2	*part1
*staff2	*staff1
*Iempty	*Ipiano
*	*I"Piano
*	*I'Pno.
*clefF4	*clefG2
*k[f#]	*k[f#]
*G:	*G:
*M3/8	*M3/8
*>[A,A,B,B]	*>[A,A,B,B]
=1	=1
*>A	*>A
!O:TX:b:t=P:w źródle caudy ćwierćnut i ósemek po prawej, na środku i po lewej:problem	!LO:TX:b:t=P:w źródle caudy ćwierćnut i ósemek po prawej, na środku i po lewej:problem
8G\L	16dd\LL
.	16gg\
8d 8B\	16ff#\
.	16gg\
8dJ 8B\	16bb\
.	16gg\JJ
=2	=2
8G\L	16ff#\LL
.	16ee\JJ
.	8qqdd#X/
8e 8c\	4ee\
8eJ 8c\	.
=3	=3
8D\L	16dd\LL
.	16cc\JJ
8c 8A 8F#\	4a/
8cJ 8A 8F#\	.
=4	=4
8G\L	16cc\LL
.	16b\JJ
8d 8B\	4dd\
8dJ 8B\	.
=5	=5
*rep	*
8G\L	16dd\LL
.	16gg\
8d 8B\	16ff#\
.	16gg\
8dJ 8B\	16bb\
.	16gg\JJ
*Xrep	*
=6	=6
8G\L	16ff#\LL
.	16ee\JJ
.	8qqdd#X/
8e 8c\	4ee\
8eJ 8c\	.
=7	=7
8D\L	16dd\LL
.	16cc\JJ
8c 8A 8F#\	8.a/L
8cJ 8A 8F#\	.
.	16f#/Jk
=8	=8
8D\L	16a/LL
.	16g/JJ
8BJ 8G\	4g/
8r	.
=9:|!|:	=9:|!|:
*>B	*>B
8D\L	16.f#/LL
.	32a/JJk
8c 8A 8F#\	8.dd\L
8cJ 8A 8F#\	.
.	16cc\Jk
=10	=10
8G\L	16a#X/LL
.	16b/JJ
8d 8B\	4dd\
8dJ 8B\	.
*clefG2	*
=11	=11
*Xtuplet	*
8d/L	16.ff#\LL
.	32aa\JJk
12cc 12a 12f#/	8.ddd\L
12ccJ 12a 12f#/	.
12ccJ 12a 12f#/L	.
.	16ccc\Jk
*tuplet	*
=12	=12
8g/L	16aa#X\LL
.	16bb\JJ
8dd 8b/	4gg\
8ddJ 8b/	.
=13	=13
*clefF4	*
8D/	16.f#/LL
.	32a/JJk
8cL 8A 8F#\	8.dd\L
8cJ 8A 8F#\	.
.	16cc\Jk
=14	=14
8G\L	16a#X/LL
.	16b/JJ
8d 8B\	4dd\
8dJ 8B\	.
=15	=15
*clefG2	*
8d/L	16ff#\LL
.	16gg\
8cc 8a 8f#/	16aa\
.	16bb\
8ccJ 8a 8f#/	16ccc\
.	16ff#\JJ
=16	=16
8d/L	16aa\LL
.	16gg\J
8b/J	8gg\J
8r	8r
!LO:TX:a:t=P:ozdobna kreska końcowa &colon;||&colon; połączona z repetycją:problem	!LO:TX:a:t=P:ozdobna kreska końcowa &colon;||&colon; połączona z repetycją:problem
==:|!;;	==:|!;;
*-	*-
!!title: @{OTL};
!!!RDF**kern: > = above
!!!RDF**kern: < = below
!!!EED: Wojciech Jakubiak-Danek
!!!EST: 2020-12-10
!!!URL-scan: http://bc.bdsandomierz.pl/dlibra/publication/1321/edition/1289/content
!!!ONB-nifc: Str. 1, s. 3
!!!AIN: 1 empty 1 piano
!!!ENC: Mateusz Solarz
!!!END: 2020-06-19
